Numix/16/emotes/face-hug-left.svg

<?xml version="1.0" encoding="UTF-8" standalone="no"?>
<svg
   xmlns:dc="http://purl.org/dc/elements/1.1/"
   xmlns:cc="http://creativecommons.org/ns#"
   xmlns:rdf="http://www.w3.org/1999/02/22-rdf-syntax-ns#"
   xmlns:svg="http://www.w3.org/2000/svg"
   xmlns="http://www.w3.org/2000/svg"
   xmlns:sodipodi="http://sodipodi.sourceforge.net/DTD/sodipodi-0.dtd"
   xmlns:inkscape="http://www.inkscape.org/namespaces/inkscape"
   width="16px"
   height="16px"
   viewBox="0 0 12 12"
   version="1.1"
   id="svg3228"
   inkscape:version="0.91 r"
   sodipodi:docname="face-hug-left.svg">
  <metadata
     id="metadata3247">
    <rdf:RDF>
      <cc:Work
         rdf:about="">
        <dc:format>image/svg+xml</dc:format>
        <dc:type
           rdf:resource="http://purl.org/dc/dcmitype/StillImage" />
      </cc:Work>
    </rdf:RDF>
  </metadata>
  <defs
     id="defs3245" />
  <sodipodi:namedview
     pagecolor="#ffffff"
     bordercolor="#666666"
     borderopacity="1"
     objecttolerance="10"
     gridtolerance="10"
     guidetolerance="10"
     inkscape:pageopacity="0"
     inkscape:pageshadow="2"
     inkscape:window-width="640"
     inkscape:window-height="480"
     id="namedview3243" />
  <g
     id="surface1">
    <path
       style=" stroke:none;fill-rule:nonzero;fill:rgb(81.176471%,61.960784%,0%);fill-opacity:1;"
       d="M 9.75 6 C 9.75 5.691406 10.253906 5.4375 10.875 5.4375 C 11.496094 5.4375 12 5.691406 12 6 C 12 6.308594 11.496094 6.5625 10.875 6.5625 C 10.253906 6.5625 9.75 6.308594 9.75 6 Z M 9.75 6 "
       id="path3231" />
    <path
       style=" stroke:none;fill-rule:nonzero;fill:rgb(100%,85.098039%,36.078431%);fill-opacity:1;"
       d="M 11.25 6 C 11.25 8.484375 8.898438 10.5 6 10.5 C 3.101562 10.5 0.75 8.484375 0.75 6 C 0.75 3.515625 3.097656 1.5 6 1.5 C 8.902344 1.5 11.25 3.515625 11.25 6 Z M 11.25 6 "
       id="path3233" />
    <path
       style=" stroke:none;fill-rule:nonzero;fill:rgb(38.823529%,38.823529%,38.823529%);fill-opacity:1;"
       d="M 5.578125 4.5 C 5.136719 4.5 4.78125 4.855469 4.78125 5.296875 C 4.78125 5.375 4.792969 5.457031 4.820312 5.535156 C 4.921875 5.203125 5.230469 4.976562 5.578125 4.976562 C 5.925781 4.976562 6.234375 5.203125 6.335938 5.535156 C 6.363281 5.457031 6.375 5.378906 6.375 5.296875 C 6.375 4.855469 6.019531 4.5 5.578125 4.5 Z M 5.578125 4.5 "
       id="path3235" />
    <path
       style=" stroke:none;fill-rule:nonzero;fill:rgb(38.823529%,38.823529%,38.823529%);fill-opacity:1;"
       d="M 5.25 7.125 C 5.4375 8.066406 6.386719 8.71875 7.5 8.71875 C 8.617188 8.71875 9.566406 8.066406 9.75 7.125 L 9.375 7.125 C 9.238281 7.6875 8.472656 8.066406 7.5 8.066406 C 6.53125 8.066406 5.761719 7.6875 5.625 7.125 Z M 5.25 7.125 "
       id="path3237" />
    <path
       style=" stroke:none;fill-rule:nonzero;fill:rgb(38.823529%,38.823529%,38.823529%);fill-opacity:1;"
       d="M 9.421875 4.5 C 8.980469 4.5 8.625 4.855469 8.625 5.296875 C 8.625 5.375 8.636719 5.457031 8.664062 5.535156 C 8.765625 5.203125 9.074219 4.976562 9.421875 4.976562 C 9.769531 4.976562 10.078125 5.203125 10.179688 5.535156 C 10.207031 5.457031 10.21875 5.378906 10.21875 5.296875 C 10.21875 4.855469 9.863281 4.5 9.421875 4.5 Z M 9.421875 4.5 "
       id="path3239" />
    <path
       style=" stroke:none;fill-rule:nonzero;fill:rgb(81.176471%,61.960784%,0%);fill-opacity:1;"
       d="M 1.75 6.5625 C 1.75 6.253906 2.253906 6 2.875 6 C 3.496094 6 4 6.253906 4 6.5625 C 4 6.871094 3.496094 7.125 2.875 7.125 C 2.253906 7.125 1.75 6.871094 1.75 6.5625 Z M 1.75 6.5625 "
       id="path3241" />
  </g>
</svg>

<svg xmlns="http://www.w3.org/2000/svg" width="16" height="16" viewBox="0 0 12 12">
 <g>
  <path d="m 9.75 6 c 0 -0.309 0.504 -0.563 1.125 -0.563 c 0.621 0 1.125 0.254 1.125 0.563 c 0 0.309 -0.504 0.563 -1.125 0.563 c -0.621 0 -1.125 -0.254 -1.125 -0.563 m 0 0" style="fill:#cf9d00;fill-opacity:1;stroke:none;fill-rule:nonzero"/>
  <path d="m 11.25 6 c 0 2.484 -2.352 4.5 -5.25 4.5 c -2.898 0 -5.25 -2.02 -5.25 -4.5 c 0 -2.484 2.348 -4.5 5.25 -4.5 c 2.902 0 5.25 2.02 5.25 4.5 m 0 0" style="fill:#ffd85b;fill-opacity:1;stroke:none;fill-rule:nonzero"/>
  <path d="m 5.578 4.5 c -0.441 0 -0.797 0.355 -0.797 0.797 c 0 0.078 0.012 0.16 0.039 0.238 c 0.102 -0.332 0.41 -0.559 0.758 -0.559 c 0.348 0 0.656 0.227 0.758 0.559 c 0.027 -0.078 0.039 -0.156 0.039 -0.238 c 0 -0.441 -0.355 -0.797 -0.797 -0.797 m 0 0" style="fill:#626262;fill-opacity:1;stroke:none;fill-rule:nonzero"/>
  <path d="m 5.25 7.125 c 0.188 0.941 1.137 1.594 2.25 1.594 c 1.117 0 2.066 -0.652 2.25 -1.594 l -0.375 0 c -0.137 0.563 -0.902 0.941 -1.875 0.941 c -0.969 0 -1.738 -0.379 -1.875 -0.941 m -0.375 0" style="fill:#626262;fill-opacity:1;stroke:none;fill-rule:nonzero"/>
  <path d="m 9.422 4.5 c -0.441 0 -0.797 0.355 -0.797 0.797 c 0 0.078 0.012 0.16 0.039 0.238 c 0.102 -0.332 0.41 -0.559 0.758 -0.559 c 0.348 0 0.656 0.227 0.758 0.559 c 0.027 -0.078 0.039 -0.156 0.039 -0.238 c 0 -0.441 -0.355 -0.797 -0.797 -0.797 m 0 0" style="fill:#626262;fill-opacity:1;stroke:none;fill-rule:nonzero"/>
  <path d="m 1.75 6.563 c 0 -0.309 0.504 -0.563 1.125 -0.563 c 0.621 0 1.125 0.254 1.125 0.563 c 0 0.309 -0.504 0.563 -1.125 0.563 c -0.621 0 -1.125 -0.254 -1.125 -0.563 m 0 0" style="fill:#cf9d00;fill-opacity:1;stroke:none;fill-rule:nonzero"/>
 </g>
</svg>
